!!!OTL: ICH STAND AUF BERGES HALDE (ALLE JAHRE WIEDER)
!!!ARE: Europa, Mitteleuropa, Deutschland
!!!SCT: B0231
!!!YEM: Copyright 1995, estate of Helmut Schaffrath.
**kern
*ICvox
*Ivox
*M4/4
*k[b-e-a-]
*E-:
{4e-
=1
4.b-
8cc
4.b-
8a-
=2
2g
4f}
{4f
=3
4e-
8f
8g
4a-
4g
=4
2f
4r}
{4f
=5
4g
4b-
4cc
4b-
=6
2ee-
4dd}
{4cc
=7
4b-
8a-
8g
4a-
4b-
=8
2g
4r}
==
!!!AGN: Tageszeiten - Lied, Abend
!!!ONB: ESAC (Essen Associative Code) Database: BOEHME
!!!AMT: simple quadruple
!!!AIN: vox
!!!EED: Helmut Schaffrath
!!!EEV: 1.0
*-
